!!!OTL: Fengyang Drum
!!!ARE: China
!!!AMD: Pentatonic
**kern
=1-
*clefG2
*k[b-]
*M4/4
*MM116
{(8.cc/L
16a/Jk)
8.g/L
16a/Jk
2cc\}
=2
{(8.a/L
16cc/Jk)
(8.dd\L
16ff\Jk)
2cc\}
=3
{4cc\
8cc\L
8ff\J
(8dd\L
8cc\J)
4a/
=4
(8g/L
8cc/J)
(8a/L
8g/J)
2f/}
=5
{4f/
8f/L
8d/J
2cc\
=6
(8.cc/L
16a/Jk)
8.g/L
16a/Jk
2cc\}
=7
{4cc\
8cc\L
8ff\J
8dd\L
8cc\J
4a/
=8
(8g/L
8cc/J)
(8a/L
8g/J)
2f/}
==
*-
